BookReader/icons/magnify-plus.svg

<svg
  viewBox="0 0 100 100"
  version="1.1"
  xmlns="http://www.w3.org/2000/svg"
  aria-labelledby="magnify-plusTitleID magnify-plusDescID"
>
  <title id="magnify-plusTitleID">Zoom in</title>
  <desc id="magnify-plusDescID">An icon of a plus symbol</desc>
  <g fill="#fff" fill-rule="evenodd">
    <path d="m2.40305276 87.4017263 25.81133064-23.7730295c-4.5356618-6.5723551-6.8034928-14.000283-6.8034928-22.2837838 0-7.1236734 1.7429868-13.6948847 5.2289603-19.7136338 3.4859736-6.0187491 8.2577006-10.7953163 14.3151813-14.32970144 6.0574806-3.53438517 12.6547027-5.30157776 19.7916662-5.30157776 10.8429591 0 20.0964884 3.85236545 27.760588 11.5570964 7.6640996 7.7047309 11.4950036 16.9684802 11.4927136 27.791248 0 10.8799585-3.8309059 20.1574336-11.4927136 27.8324254-7.6618077 7.6749917-16.915337 11.5124876-27.760588 11.5124876-8.6312796 0-16.431747-2.5678624-23.4014021-7.7035871l-26.1413636 24.188234c-1.21699671 1.2147305-2.73881553 1.8220957-4.56545649 1.8220957s-3.3897139-.6485425-4.68921882-1.9456276c-1.29950493-1.297085-1.94925739-2.8572473-1.94925739-4.6804867 0-1.8781426.80216353-3.5343852 2.4064906-4.9687279zm58.34020784-19.878343c7.1369635 0 13.264347-2.5678623 18.3821503-7.7035871 5.1178034-5.1357247 7.676705-11.2928753 7.676705-18.4714518s-2.5589016-13.3082755-7.676705-18.3890972c-5.1178033-5.0808217-11.2451868-7.6212325-18.3821503-7.6212325-7.2469746 0-13.4156121 2.5404108-18.5059127 7.6212325s-7.6354509 11.2105207-7.6354509 18.3890972 2.5589016 13.3357271 7.676705 18.4714518c5.1178033 5.1357248 11.2726895 7.7035871 18.4646586 7.7035871zm-13.3594607-21.8685793h10.206958v10.1879511h7.2194718v-10.1879511h10.206958v-7.206028h-10.206958v-10.187951h-7.2194718v10.187951h-10.206958z"/>
  </g>

</svg>

<svg xmlns="http://www.w3.org/2000/svg" aria-labelledby="magnify-plusTitleID magnify-plusDescID" viewBox="0 0 100 100"><desc>An icon of a plus symbol</desc><path fill="#fff" fill-rule="evenodd" d="m2.403 87.402 25.811-23.773c-4.535-6.573-6.803-14-6.803-22.284 0-7.124 1.743-13.695 5.229-19.714 3.486-6.018 8.258-10.795 14.315-14.33C47.013 3.768 53.61 2 60.747 2c10.843 0 20.096 3.852 27.76 11.557 7.664 7.705 11.495 16.969 11.493 27.791 0 10.88-3.83 20.158-11.493 27.833-7.662 7.675-16.915 11.512-27.76 11.512-8.632 0-16.432-2.568-23.402-7.703L11.204 97.178C9.987 98.393 8.465 99 6.638 99s-3.39-.649-4.689-1.946C.65 95.757 0 94.197 0 92.374c0-1.878.802-3.534 2.406-4.969zm58.34-19.879c7.137 0 13.265-2.567 18.382-7.703 5.118-5.136 7.677-11.293 7.677-18.472S84.243 28.04 79.125 22.96c-5.117-5.08-11.245-7.621-18.382-7.621-7.247 0-13.415 2.54-18.506 7.621s-7.635 11.21-7.635 18.39 2.559 13.335 7.677 18.47c5.117 5.137 11.272 7.704 18.464 7.704zm-13.36-21.868h10.208v10.188h7.22V45.655h10.206v-7.206H64.81V28.26h-7.22v10.188H47.385z"/></svg>
